X: 228
T: Liusanr tuiche
L: 1/8
M: 2/4
K: G
d2d2 [I:setbarnb 1]| 
g ed2 | 
dA2c | 
B dA2 | 
d> d G A | 
d2g e | 
d2G A | 
dG2B | 
A GD2 | 
G> GD2 | 
zd2e | 
d2A B | 
A GD2 | 
d> d G A | 
d2g e | 
d2G A | 
c> c B A | 
GD3 | 
G> G G B | 
A GD2 | 
d> d G A | 
d2g e | 
d2G A | 
c> c B A | 
GD3 |]

@@@ Tune index: 9102
